sources/design/Outline/Y.svg

<svg:svg xmlns:cc="http://creativecommons.org/ns#" xmlns:dc="http://purl.org/dc/elements/1.1/" xmlns:inkscape="http://www.inkscape.org/namespaces/inkscape" xmlns:rdf="http://www.w3.org/1999/02/22-rdf-syntax-ns#" xmlns:sodipodi="http://sodipodi.sourceforge.net/DTD/sodipodi-0.dtd" xmlns:svg="http://www.w3.org/2000/svg" xml:space="preserve" width="1000" height="1000" version="1.1" style="clip-rule:evenodd;fill-rule:evenodd;image-rendering:optimizeQuality;shape-rendering:geometricPrecision;text-rendering:geometricPrecision" viewBox="0 0 1000 1000" id="svg10" sodipodi:docname="Y.svg" inkscape:version="1.1.1 (3bf5ae0d25, 2021-09-20)"><svg:text text-anchor="middle" x="245.18201" y="-2.8287153" id="top" inkscape:label="top" style="clip-rule:evenodd;fill-rule:evenodd;image-rendering:optimizeQuality;shape-rendering:geometricPrecision;text-rendering:geometricPrecision">✛</svg:text><svg:metadata id="metadata14"><rdf:RDF><cc:Work rdf:about=""><dc:format>image/svg+xml</dc:format><dc:type rdf:resource="http://purl.org/dc/dcmitype/StillImage" /><dc:title /></cc:Work></rdf:RDF></svg:metadata><sodipodi:namedview pagecolor="#ffffff" bordercolor="#666666" borderopacity="1" objecttolerance="10" gridtolerance="10" guidetolerance="10" inkscape:pageopacity="0" inkscape:pageshadow="2" inkscape:window-width="1920" inkscape:window-height="1009" id="namedview12" showgrid="false" inkscape:zoom="0.84890884" inkscape:cx="508.29957" inkscape:cy="376.95449" inkscape:window-x="0" inkscape:window-y="60" inkscape:window-maximized="1" inkscape:current-layer="svg10" showguides="true" inkscape:guide-bbox="true" inkscape:document-rotation="0" inkscape:pagecheckerboard="0"><sodipodi:guide position="0,1000" orientation="0,1" id="guide16" inkscape:label="" inkscape:locked="true" inkscape:color="rgb(0,0,255)" /><sodipodi:guide position="1763.3122,2036.1693" orientation="1000,0" id="guide18" /><sodipodi:guide position="0,200" orientation="0,1" id="guide20" inkscape:label="base" inkscape:locked="true" inkscape:color="rgb(0,0,255)" /><inkscape:grid type="xygrid" id="grid24" originx="-473.37552" originy="-489.69235" /><sodipodi:guide position="0,0" orientation="0,1" id="guide34" inkscape:label="bottom" inkscape:locked="true" inkscape:color="rgb(0,0,255)" /><sodipodi:guide position="225.05109,1693.3186" orientation="0,1" id="guide44" inkscape:label="" inkscape:locked="false" inkscape:color="rgb(0,0,255)" /><sodipodi:guide position="0,900" orientation="0,1" id="guide46" inkscape:label="" inkscape:locked="true" inkscape:color="rgb(0,0,255)" /><sodipodi:guide position="524.38007,525.22124" orientation="1,0" id="guide841" inkscape:label="width" />    </sodipodi:namedview>
 <svg:defs id="defs4"><inkscape:path-effect effect="fillet_chamfer" id="path-effect858" is_visible="true" lpeversion="1" satellites_param="F,0,1,1,0,19.521827,0,1 @ F,0,1,1,0,19.521827,0,1 @ F,0,0,1,0,0,0,1 @ F,0,0,1,0,0,0,1 @ F,0,0,1,0,0,0,1 @ F,0,0,1,0,0,0,1 @ F,0,1,1,0,19.521827,0,1 @ F,0,1,1,0,19.521827,0,1 @ F,0,0,1,0,0,0,1 @ F,0,0,1,0,0,0,1 @ F,0,0,1,0,0,0,1 | F,0,1,1,0,19.521827,0,1 @ F,0,0,1,0,0,0,1 @ F,0,0,1,0,0,0,1 @ F,0,0,1,0,0,0,1 @ F,0,0,1,0,0,0,1 @ F,0,1,1,0,19.521827,0,1" unit="px" method="auto" mode="F" radius="0" chamfer_steps="1" flexible="false" use_knot_distance="true" apply_no_radius="true" apply_with_radius="true" only_selected="true" hide_knots="false" /><inkscape:path-effect effect="spiro" id="path-effect856" is_visible="true" lpeversion="1" /><inkscape:path-effect effect="spiro" id="path-effect874" is_visible="true" lpeversion="1" /><inkscape:path-effect effect="spiro" id="path-effect855" is_visible="true" lpeversion="1" /><inkscape:path-effect effect="spiro" id="path-effect853" is_visible="true" lpeversion="1" /><inkscape:path-effect effect="spiro" id="path-effect928" is_visible="true" lpeversion="1" /><inkscape:path-effect effect="spiro" id="path-effect921" is_visible="true" lpeversion="1" /><inkscape:path-effect effect="spiro" id="path-effect917" is_visible="true" lpeversion="1" /><inkscape:path-effect effect="spiro" id="path-effect849" is_visible="true" lpeversion="1" /><inkscape:path-effect effect="spiro" id="path-effect851" is_visible="true" lpeversion="1" />
  <svg:style type="text/css" id="style2">
   
    .fil0 {fill:#EF7F1A;fill-rule:nonzero}
   
  </svg:style>
 <inkscape:path-effect effect="spiro" id="path-effect1214" is_visible="true" lpeversion="1" /><inkscape:path-effect effect="spiro" id="path-effect1195" is_visible="true" lpeversion="1" /><inkscape:path-effect effect="spiro" id="path-effect992" is_visible="true" lpeversion="1" /><inkscape:path-effect effect="spiro" id="path-effect1060" is_visible="true" lpeversion="1" /><inkscape:path-effect effect="spiro" id="path-effect1047" is_visible="true" lpeversion="1" /><inkscape:path-effect effect="spiro" id="path-effect1085" is_visible="true" lpeversion="1" /><inkscape:path-effect effect="spiro" id="path-effect1286" is_visible="true" lpeversion="1" /><inkscape:path-effect effect="spiro" id="path-effect117" is_visible="true" lpeversion="1" /></svg:defs>
 
<svg:g id="path853-3"><svg:path style="color:#000000;fill:#1a5fb4;fill-rule:nonzero;stroke-linecap:round;stroke-linejoin:round;-inkscape-stroke:none;paint-order:fill stroke markers" d="M 19.521484,-30.0 C 7.220156300000001,-30.0 -9.121261099999998,-24.666308 -17.460937,-9.802734399999999 C -25.800614000000003,5.060838900000002 -21.862786,21.720526000000003 -15.496094000000001,32.222656 C 22.394177,94.72427400000001 58.654725,158.21516 93.234375,222.60742 C 133.64491,297.85763 171.65125999999998,374.39027 207.40233999999998,451.96289 C 198.66724,525.50671 190.64101999999997,598.39797 176.41405999999998,669.04687 C 169.37636999999998,703.99499 160.78758,738.63183 150.68358999999998,772.8203100000001 C 146.9929,785.30838 148.45029,800.7152900000001 157.05664,812.3652300000001 C 165.66299,824.01517 180.17108,830.0 193.29492,830.0 L 299.46484,830.0 C 312.65641,830.0 326.94570999999996,823.97454 335.56055,812.74219 C 344.17537999999996,801.50984 346.26103,786.6162 343.19921999999997,774.02539 C 336.64369,747.06773 332.16526,719.59724 329.82226999999995,691.95703 C 323.54362999999995,617.88809 332.60076999999995,541.99175 348.64647999999994,467.04102 C 369.4173599999999,370.01874 401.44679999999994,275.46442 445.69921999999997,187.16992 C 472.43332,133.8288 503.64617,82.719228 538.88477,34.568359 C 545.83693,25.06875 552.23098,8.7958096 544.01562,-7.6464844 C 535.80027,-24.088778 518.65925,-28.798828 506.82227,-28.798828 L 391.22656,-28.798828 C 364.36435,-28.798828 343.4603,-10.246393000000001 339.22656,15.673828 C 332.92954000000003,54.226069 323.16015,92.223335 310.07617,129.02539000000002 C 296.47666,167.27751 278.52357,205.70417000000003 261.54687,245.48828000000003 C 240.42882,202.96815 222.92229,158.65251 209.55273,113.12305 C 200.04862,80.757186 192.5637,47.792116 187.15625,14.494141 C 182.93004,-11.529996 161.96691,-30.0 135.11719,-30.0 L 19.521484,-30.0 M 53.066406,30.0 L 128.98242,30.0 C 134.70171,63.753224 142.3363,97.179831 151.98242,130.0293 C 171.38056999999998,196.08890000000002 198.79837999999998,259.69515 233.125,319.34375 C 230.04556,328.77254 227.21295,338.33646 224.62305,348.02539 C 199.4631,296.24593 173.3322,244.93897 146.0957,194.2207 C 116.32793,138.78885 85.258383,84.059889 53.066406,30.0 M 397.34961,31.201172 L 468.00977,31.201172 C 439.91657,72.518097 414.44744000000003,115.61584 392.05859,160.28710999999998 C 362.55523999999997,219.15357999999998 338.31649,280.45804999999996 318.96289,343.20507999999995 C 312.22939,333.37498999999997 305.71761000000004,323.40120999999994 299.42383,313.28124999999994 C 319.44476000000003,260.46525999999994 346.03953,206.98297999999994 366.60937,149.12499999999994 C 380.23664,110.79480999999994 390.45699,71.28789599999995 397.34961,31.201171999999943 L 397.34961,31.201172 M 277.54883,522.50391 C 268.88118000000003,579.74841 265.05142,638.23234 270.03516,697.02539 C 272.11392,721.54849 275.77263,745.92172 280.84180000000003,770.0 L 213.84570000000002,770.0 C 222.02751000000004,740.5616 229.20242000000002,710.8444 235.23437,680.89062 C 245.55331,629.64834 252.49513000000002,578.4712 258.73633,527.50391 A 30.003,30.003 0.0 0,0 277.54883,522.50391" id="path7610" /></svg:g></svg:svg>

<svg:svg xmlns:cc="http://creativecommons.org/ns#" xmlns:dc="http://purl.org/dc/elements/1.1/" xmlns:inkscape="http://www.inkscape.org/namespaces/inkscape" xmlns:rdf="http://www.w3.org/1999/02/22-rdf-syntax-ns#" xmlns:sodipodi="http://sodipodi.sourceforge.net/DTD/sodipodi-0.dtd" xmlns:svg="http://www.w3.org/2000/svg" xml:space="preserve" width="1000" height="1000" version="1.1" style="clip-rule:evenodd;fill-rule:evenodd;image-rendering:optimizeQuality;shape-rendering:geometricPrecision;text-rendering:geometricPrecision" viewBox="0 0 1000 1000" id="svg10" sodipodi:docname="Y.svg" inkscape:version="1.1.1 (3bf5ae0d25, 2021-09-20)"><svg:text text-anchor="middle" x="245.18201" y="-2.8287153" id="top" inkscape:label="top" style="clip-rule:evenodd;fill-rule:evenodd;image-rendering:optimizeQuality;shape-rendering:geometricPrecision;text-rendering:geometricPrecision">✛</svg:text><svg:metadata id="metadata14"><rdf:RDF><cc:Work rdf:about=""><dc:format>image/svg+xml</dc:format><dc:type rdf:resource="http://purl.org/dc/dcmitype/StillImage" /><dc:title /></cc:Work></rdf:RDF></svg:metadata><sodipodi:namedview pagecolor="#ffffff" bordercolor="#666666" borderopacity="1" objecttolerance="10" gridtolerance="10" guidetolerance="10" inkscape:pageopacity="0" inkscape:pageshadow="2" inkscape:window-width="1920" inkscape:window-height="1009" id="namedview12" showgrid="false" inkscape:zoom="0.84890884" inkscape:cx="508.29957" inkscape:cy="376.95449" inkscape:window-x="0" inkscape:window-y="60" inkscape:window-maximized="1" inkscape:current-layer="svg10" showguides="true" inkscape:guide-bbox="true" inkscape:document-rotation="0" inkscape:pagecheckerboard="0"><sodipodi:guide position="0,1000" orientation="0,1" id="guide16" inkscape:label="" inkscape:locked="true" inkscape:color="rgb(0,0,255)" /><sodipodi:guide position="1763.3122,2036.1693" orientation="1000,0" id="guide18" /><sodipodi:guide position="0,200" orientation="0,1" id="guide20" inkscape:label="base" inkscape:locked="true" inkscape:color="rgb(0,0,255)" /><inkscape:grid type="xygrid" id="grid24" originx="-473.37552" originy="-489.69235" /><sodipodi:guide position="0,0" orientation="0,1" id="guide34" inkscape:label="bottom" inkscape:locked="true" inkscape:color="rgb(0,0,255)" /><sodipodi:guide position="225.05109,1693.3186" orientation="0,1" id="guide44" inkscape:label="" inkscape:locked="false" inkscape:color="rgb(0,0,255)" /><sodipodi:guide position="0,900" orientation="0,1" id="guide46" inkscape:label="" inkscape:locked="true" inkscape:color="rgb(0,0,255)" /><sodipodi:guide position="524.38007,525.22124" orientation="1,0" id="guide841" inkscape:label="width" />    </sodipodi:namedview>
 <svg:defs id="defs4"><inkscape:path-effect effect="fillet_chamfer" id="path-effect858" is_visible="true" lpeversion="1" satellites_param="F,0,1,1,0,19.521827,0,1 @ F,0,1,1,0,19.521827,0,1 @ F,0,0,1,0,0,0,1 @ F,0,0,1,0,0,0,1 @ F,0,0,1,0,0,0,1 @ F,0,0,1,0,0,0,1 @ F,0,1,1,0,19.521827,0,1 @ F,0,1,1,0,19.521827,0,1 @ F,0,0,1,0,0,0,1 @ F,0,0,1,0,0,0,1 @ F,0,0,1,0,0,0,1 | F,0,1,1,0,19.521827,0,1 @ F,0,0,1,0,0,0,1 @ F,0,0,1,0,0,0,1 @ F,0,0,1,0,0,0,1 @ F,0,0,1,0,0,0,1 @ F,0,1,1,0,19.521827,0,1" unit="px" method="auto" mode="F" radius="0" chamfer_steps="1" flexible="false" use_knot_distance="true" apply_no_radius="true" apply_with_radius="true" only_selected="true" hide_knots="false" /><inkscape:path-effect effect="spiro" id="path-effect856" is_visible="true" lpeversion="1" /><inkscape:path-effect effect="spiro" id="path-effect874" is_visible="true" lpeversion="1" /><inkscape:path-effect effect="spiro" id="path-effect855" is_visible="true" lpeversion="1" /><inkscape:path-effect effect="spiro" id="path-effect853" is_visible="true" lpeversion="1" /><inkscape:path-effect effect="spiro" id="path-effect928" is_visible="true" lpeversion="1" /><inkscape:path-effect effect="spiro" id="path-effect921" is_visible="true" lpeversion="1" /><inkscape:path-effect effect="spiro" id="path-effect917" is_visible="true" lpeversion="1" /><inkscape:path-effect effect="spiro" id="path-effect849" is_visible="true" lpeversion="1" /><inkscape:path-effect effect="spiro" id="path-effect851" is_visible="true" lpeversion="1" />
  <svg:style type="text/css" id="style2">
   
    .fil0 {fill:#EF7F1A;fill-rule:nonzero}
   
  </svg:style>
 <inkscape:path-effect effect="spiro" id="path-effect1214" is_visible="true" lpeversion="1" /><inkscape:path-effect effect="spiro" id="path-effect1195" is_visible="true" lpeversion="1" /><inkscape:path-effect effect="spiro" id="path-effect992" is_visible="true" lpeversion="1" /><inkscape:path-effect effect="spiro" id="path-effect1060" is_visible="true" lpeversion="1" /><inkscape:path-effect effect="spiro" id="path-effect1047" is_visible="true" lpeversion="1" /><inkscape:path-effect effect="spiro" id="path-effect1085" is_visible="true" lpeversion="1" /><inkscape:path-effect effect="spiro" id="path-effect1286" is_visible="true" lpeversion="1" /><inkscape:path-effect effect="spiro" id="path-effect117" is_visible="true" lpeversion="1" /></svg:defs>
 
<svg:g id="path853-3"><svg:path style="color:#000000;fill:#1a5fb4;fill-rule:nonzero;stroke-linecap:round;stroke-linejoin:round;-inkscape-stroke:none" d="m 19.521484,-30 c -12.3013277,0 -28.6427451,5.333692 -36.982421,20.1972656 -8.339677,14.8635733 -4.401849,31.5232604 1.964843,42.0253904 37.890271,62.501618 74.150819,125.992504 108.730469,190.384764 40.410535,75.25021 78.416885,151.78285 114.167965,229.35547 -8.7351,73.54382 -16.76132,146.43508 -30.98828,217.08398 -7.03769,34.94812 -15.62648,69.58496 -25.73047,103.77344 -3.69069,12.48807 -2.2333,27.89498 6.37305,39.54492 C 165.66299,824.01517 180.17108,830 193.29492,830 h 106.16992 c 13.19157,0 27.48087,-6.02546 36.09571,-17.25781 8.61483,-11.23235 10.70048,-26.12599 7.63867,-38.7168 -6.55553,-26.95766 -11.03396,-54.42815 -13.37695,-82.06836 -6.27864,-74.06894 2.7785,-149.96528 18.82421,-224.91601 20.77088,-97.02228 52.80032,-191.5766 97.05274,-279.8711 C 472.43332,133.8288 503.64617,82.719228 538.88477,34.568359 545.83693,25.06875 552.23098,8.7958096 544.01562,-7.6464844 535.80027,-24.088778 518.65925,-28.798828 506.82227,-28.798828 H 391.22656 c -26.86221,0 -47.76626,18.552435 -52,44.472656 -6.29702,38.552241 -16.06641,76.549507 -29.15039,113.351562 -13.59951,38.25212 -31.5526,76.67878 -48.5293,116.46289 C 240.42882,202.96815 222.92229,158.65251 209.55273,113.12305 200.04862,80.757186 192.5637,47.792116 187.15625,14.494141 182.93004,-11.529996 161.96691,-30 135.11719,-30 Z m 33.544922,60 h 75.916014 c 5.71929,33.753224 13.35388,67.179831 23,100.0293 19.39815,66.0596 46.81596,129.66585 81.14258,189.31445 -3.07944,9.42879 -5.91205,18.99271 -8.50195,28.68164 C 199.4631,296.24593 173.3322,244.93897 146.0957,194.2207 116.32793,138.78885 85.258383,84.059889 53.066406,30 Z m 344.283204,1.201172 h 70.66016 c -28.0932,41.316925 -53.56233,84.414668 -75.95118,129.085938 -29.50335,58.86647 -53.7421,120.17094 -73.0957,182.91797 -6.7335,-9.83009 -13.24528,-19.80387 -19.53906,-29.92383 20.02093,-52.81599 46.6157,-106.29827 67.18554,-164.15625 13.62727,-38.33019 23.84762,-77.837104 30.74024,-117.923828 z M 277.54883,522.50391 c -8.66765,57.2445 -12.49741,115.72843 -7.51367,174.52148 2.07876,24.5231 5.73747,48.89633 10.80664,72.97461 h -66.9961 c 8.18181,-29.4384 15.35672,-59.1556 21.38867,-89.10938 10.31894,-51.24228 17.26076,-102.41942 23.50196,-153.38671 a 30.003,30.003 0 0 0 18.8125,-5 z" id="path7598" /></svg:g></svg:svg>
